X:1
T:Title
%%score 1 { 2 | 3 }
L:1/8
M:4/4
K:Ab
V:1 treble nm="Grand Piano, Unnamed-000"
V:2 bass nm="Choir Pad, Lenox"
V:3 bass 
V:1
 [CA]4 [CA]2 [CA]2 | E2 [DF]2 [B,E]4- | [B,E]2 [CE]2 [CA]2 [EB]2 | [Ec]2 [DB]2 [CA]4 | %4
w: By~Lewis~Edson,~circa~1782 * *||||
 [CA]4 [Ec]2 [Ee]2 | [Ec]2 [EA]2 [EB]4- | [EB]2 [EB]2 [Ec]2 [FA]2 | [FB]2 [EG]2 [EA]4- | %8
w: ||||
 [EA]2 [CE]2 [CA]2 [CA]2 | [CA]2 [CE]2 [DF]2 [DF]2 | [DF]2 [CA]2 [EB]2 [EB]2 | %11
w: |||
 [EB]2 [Ec]2 [CA]2 [CA]2 | [CA]2 E2 [DF]2 [DF]2 | [DF]2 [CA]2 [EB]4- | [EB]2 [EG]2 [CA]4- | %15
w: ||||
 [CA]4 z4 |] %16
w: |
V:2
 E,4 E,2 A,2 | A,2 A,2 G,4- | G,2 G,2 F,2 G,2 | A,2 G,2 A,4 | A,4 A,2 B,2 | A,2 A,2 G,4- | %6
 G,2 G,2 A,2 A,2 | D2 B,2 C4- | C2 A,2[K:bass] E,2 E,2 | E,2 A,2 A,2 A,2 | A,2 A,2 G,2 G,2 | %11
 G,2 G,2 A,2 A,2 | A,2 A,2 A,2 A,2 | A,2 A,2 G,4- | G,2 B,2 A,4- | A,4 z4 |] %16
V:3
 A,,4 A,,2 A,,2 | C,2 D,2 E,4- | E,2 C,2 z2 E,2 | z2 E,2 A,,4 | A,,4 z2 G,2 | z2 C,2 E,4- | %6
 E,2 E,2 z2 F,2 | D,2 E,2 A,,4- | A,,2 A,,2 A,,2 A,,2 | A,,2 A,,2 D,2 D,2 | D,2 A,,2 E,2 E,2 | %11
 E,2 C,2 F,2 F,2 | F,2 C,2 D,2 D,2 | D,2 A,,2 E,4- | E,2 E,2 A,,4- | A,,4 z4 |] %16

